X: 39497
T: Tatter Jack Walsh
R: jig
M: 6/8
K: Dmixolydian
|:"D"fef ded|"C"cAB c2 A|"D"dcA GFG|"A"Add efg|
"D"fef ded|"C"cAB c2 A|"D"dcA GFG|1 "A"Ad^c "D"d2e:|2 "A"Ad^c "D"d3||
|:"D"dfa afd|dfa agf|"C"g2 a ged|"A"^cde gfg|
"D"afd fed|"C"cAB cde|"D"dcA GFG|1 "A"Ad^c "D"d2A:|2 "A"Ad^c "D"d3||

